media/icon-file-type/svgs/word-document/24.svg

<svg width="24" height="24" viewBox="0 0 24 24"><path fill="#1D7AFC" fill-rule="evenodd" d="M3,1.42108547e-14 L21,1.42108547e-14 C22.6568542,1.39064955e-14 24,1.34314575 24,3 L24,21 C24,22.6568542 22.6568542,24 21,24 L3,24 C1.34314575,24 -2.41183085e-16,22.6568542 -4.4408921e-16,21 L-4.4408921e-16,3 C-6.46995335e-16,1.34314575 1.34314575,1.45152139e-14 3,1.42108547e-14 Z M4.37602767,6.01318388 C4.16031379,6.04379714 4,6.22846836 4,6.44634367 L4,17.5963098 C4,17.8147857 4.16117499,17.9997729 4.37759295,18.0296888 L15.5025929,19.5675249 C15.522444,19.570269 15.5424602,19.5716459 15.5625,19.5716459 C15.8041246,19.5716459 16,19.3757705 16,19.1341459 L16,4.86752744 C16,4.84696011 15.9985497,4.82641839 15.9956598,4.8060551 C15.9617096,4.56682756 15.7402552,4.40041742 15.5010277,4.43436765 L4.37602767,6.01318388 Z M10.0048828,11.3369141 L8.68652344,16 L7.29492188,16 L5.4296875,8.95410156 L6.96289062,8.95410156 L8.06152344,13.9199219 L8.13964844,13.9199219 L9.42382812,8.95410156 L10.6689453,8.95410156 L11.9775391,13.9199219 L12.0556641,13.9199219 L13.1445312,8.95410156 L14.6679688,8.95410156 L12.7978516,16 L11.4160156,16 L10.0830078,11.3369141 L10.0048828,11.3369141 Z M17,7 L17,17 L19.5,17 C19.7761424,17 20,16.7761424 20,16.5 L20,7.5 C20,7.22385763 19.7761424,7 19.5,7 L17,7 Z"/></svg>

<svg width="24" height="24" viewBox="0 0 24 24"><path fill="#004E8C" fill-rule="evenodd" d="M3 0h18a3 3 0 013 3v18a3 3 0 01-3 3H3a3 3 0 01-3-3V3a3 3 0 013-3zm1.376 6.013A.437.437 0 004 6.446v11.15c0 .219.161.404.378.434l11.125 1.538a.437.437 0 00.497-.434V4.868a.437.437 0 00-.499-.434L4.376 6.014zm5.629 5.324L8.687 16H7.295L5.43 8.954h1.533l1.099 4.966h.078l1.284-4.966h1.245l1.309 4.966h.078l1.089-4.966h1.523L12.798 16h-1.382l-1.333-4.663h-.078zM17 7v10h2.5a.5.5 0 00.5-.5v-9a.5.5 0 00-.5-.5H17z"/></svg>
